X: 31223
T: Paddy Fahey's
R: reel
M: 4/4
K: Ddorian
|:D^CDE FEFG|A ~d2 c d3e|fedf edcA|dcAG ~F2 EF|
D ~D2 E FEFG|A ~d2 c d3e|fdgf edcA|dcAG ~F2~D2:|
|:Ad ~d2 adfd|edcd AcGc|Ad ~d2 adfd|eaag edcA|
a2^ga ABcA|dcAG ~F2 EF|D ~D2 E FEFG|A ~d2 c d4:|

